resources/haticons/SVG/digg1.svg

<!-- Generated by IcoMoon.io -->
<svg version="1.1" xmlns="http://www.w3.org/2000/svg" width="24" height="24" viewBox="0 0 24 24">
<title>digg1</title>
<path d="M17.76 8.16v8.16h3.84v0.96h-3.84v1.92h6.24v-11.040zM10.56 8.16v8.16h3.84v0.96h-3.84v1.92h6.24v-11.040zM3.84 4.8v3.36h-3.84v8.16h6.24v-11.52zM9.6 8.16h-2.4v8.16h2.4zM21.6 14.4h-1.44v-4.32h1.44zM3.84 14.4h-1.44v-4.32h1.44zM14.4 14.4h-1.44v-4.32h1.44zM9.6 4.8h-2.4v2.4h2.4z"></path>
</svg>

<svg xmlns="http://www.w3.org/2000/svg" width="24" height="24"><path d="M17.76 8.16v8.16h3.84v.96h-3.84v1.92H24V8.16zm-7.2 0v8.16h3.84v.96h-3.84v1.92h6.24V8.16zM3.84 4.8v3.36H0v8.16h6.24V4.8zM9.6 8.16H7.2v8.16h2.4zm12 6.24h-1.44v-4.32h1.44zm-17.76 0H2.4v-4.32h1.44zm10.56 0h-1.44v-4.32h1.44zM9.6 4.8H7.2v2.4h2.4z"/></svg>
